build/img/menu_close-hover.svg

<svg width="24" height="24" viewBox="0 0 24 24" fill="none" xmlns="http://www.w3.org/2000/svg">
<path fill-rule="evenodd" clip-rule="evenodd" d="M20.3077 19.6441L19.6432 20.3077L12 12.665L4.35682 20.3077L3.69232 19.6441L11.3355 11.9995L3.69232 4.35686L4.35682 3.69232L12 11.335L19.6423 3.69232L20.3068 4.35686L12.6645 11.9995L20.3077 19.6441Z" fill="#1A1A1A"/>
</svg>

<svg width="24" height="24" viewBox="0 0 24 24" fill="none" xmlns="http://www.w3.org/2000/svg"><path fill-rule="evenodd" clip-rule="evenodd" d="M20.308 19.644l-.665.664L12 12.665l-7.643 7.643-.665-.664L11.335 12 3.692 4.356l.665-.665L12 11.335l7.642-7.643.665.665-7.642 7.642 7.643 7.645z" fill="#1A1A1A"/></svg>
